svgs/light/water-arrow-down.svg

<svg xmlns="http://www.w3.org/2000/svg" viewBox="0 0 576 512"><!--! Font Awesome Pro 6.0.0-alpha3 by @fontawesome - https://fontawesome.com License - https://fontawesome.com/license (Commercial License) --><path d="M562 479.1c-28.14-3.625-53.29-18.34-69.03-40.38c-6-8.438-20.04-8.438-26.04 0C448.5 464.6 417.5 480 383.1 480c-33.52 0-64.53-15.44-82.97-41.28c-6.031-8.438-20.03-8.438-26.06 0C256.5 464.6 225.5 480 192 480c-33.51 0-64.53-15.44-82.97-41.28C106 434.5 101.2 432 96 432s-10.02 2.5-13.02 6.719c-15.73 22.03-40.89 36.75-69.03 40.38c-8.766 1.125-14.95 9.156-13.83 17.94c1.125 8.75 9.029 15.06 17.92 13.81c29.98-3.875 57.48-17.47 77.94-38.09c24.62 24.84 59.28 39.25 96.06 39.25c36.77 0 71.33-14.41 95.95-39.25C312.6 497.6 347.3 512 384.1 512c36.78 0 71.33-14.41 95.95-39.25c20.45 20.62 47.95 34.22 77.94 38.09c8.951 1.375 16.79-5.062 17.92-13.81C576.1 488.3 570.8 480.2 562 479.1zM18.05 382.8c29.98-3.875 57.48-17.47 77.94-38.09c24.62 24.84 59.28 39.16 96.06 39.16c36.77 0 71.33-14.32 95.95-39.16c24.62 24.84 59.28 39.16 96.05 39.16c36.78 0 71.34-14.32 95.96-39.16c20.45 20.62 47.95 34.22 77.94 38.09c8.951 1.375 16.79-5.062 17.92-13.81c1.125-8.781-5.062-16.81-13.83-17.94c-28.14-3.625-53.29-18.34-69.03-40.38c-6-8.438-20.04-8.438-26.04 0C448.5 336.6 417.5 352 383.1 352c-33.52 0-64.53-15.44-82.97-41.28c-6.031-8.438-20.03-8.438-26.06 0C256.5 336.6 225.5 352 192 352c-33.51 0-64.53-15.44-82.97-41.28C106 306.5 101.2 304 96 304S85.99 306.5 82.99 310.7c-15.73 22.03-40.89 36.75-69.03 40.38c-8.766 1.125-14.95 9.156-13.83 17.94C1.258 377.8 9.162 384.1 18.05 382.8zM276.7 235.3C279.8 238.4 283.9 240 288 240s8.188-1.562 11.31-4.688l96-96c6.25-6.25 6.25-16.38 0-22.62s-16.38-6.25-22.62 0L304 185.4V16c0-8.844-7.157-16-16-16S272 7.156 272 16v169.4L203.3 116.7c-6.25-6.25-16.38-6.25-22.62 0s-6.25 16.38 0 22.62L276.7 235.3z"/></svg>

<svg xmlns="http://www.w3.org/2000/svg" viewBox="0 0 576 512"><!-- Font Awesome Pro 6.0.0-alpha2 by @fontawesome - https://fontawesome.com License - https://fontawesome.com/license (Commercial License) --><path d="M562.038 479.094C533.9 475.469 508.743 460.75 493.009 438.719C487.009 430.281 472.964 430.281 466.964 438.719C448.527 464.562 417.511 480 383.997 480C350.482 480 319.468 464.562 301.031 438.719C294.999 430.281 280.999 430.281 274.968 438.719C256.531 464.562 225.517 480 192.001 480C158.488 480 127.472 464.562 109.034 438.719C106.034 434.5 101.175 432 96.003 432S85.988 434.5 82.988 438.719C67.255 460.75 42.099 475.469 13.958 479.094C5.193 480.219 -0.993 488.25 0.132 497.031C1.257 505.781 9.161 512.094 18.052 510.844C48.036 506.969 75.536 493.375 95.988 472.75C120.613 497.594 155.222 512 192.001 512C228.767 512 263.374 497.594 287.999 472.75C312.624 497.594 347.232 512 383.997 512C420.777 512 455.386 497.594 480.011 472.75C500.462 493.375 527.962 506.969 557.947 510.844C566.898 512.219 574.741 505.781 575.866 497.031C576.991 488.25 570.804 480.219 562.038 479.094ZM18.052 382.844C48.036 378.969 75.536 365.375 95.988 344.75C120.613 369.594 155.222 384 192.001 384C228.767 384 263.374 369.594 287.999 344.75C312.624 369.594 347.232 384 383.997 384C420.777 384 455.386 369.594 480.011 344.75C500.462 365.375 527.962 378.969 557.947 382.844C566.898 384.219 574.741 377.781 575.866 369.031C576.991 360.25 570.804 352.219 562.038 351.094C533.9 347.469 508.743 332.75 493.009 310.719C487.009 302.281 472.964 302.281 466.964 310.719C448.527 336.562 417.511 352 383.997 352C350.482 352 319.468 336.562 301.031 310.719C294.999 302.281 280.999 302.281 274.968 310.719C256.531 336.562 225.517 352 192.001 352C158.488 352 127.472 336.562 109.034 310.719C106.034 306.5 101.175 304 96.003 304S85.988 306.5 82.988 310.719C67.255 332.75 42.099 347.469 13.958 351.094C5.193 352.219 -0.993 360.25 0.132 369.031C1.257 377.781 9.161 384.094 18.052 382.844ZM276.687 235.312C279.812 238.438 283.906 240 287.999 240S296.187 238.438 299.312 235.312L395.312 139.312C401.562 133.062 401.562 122.937 395.312 116.688S378.937 110.438 372.687 116.688L303.999 185.375V16C303.999 7.156 296.843 0 287.999 0S271.999 7.156 271.999 16V185.375L203.312 116.688C197.062 110.438 186.937 110.438 180.687 116.688S174.437 133.063 180.687 139.312L276.687 235.312Z"/></svg>
